icons/lines/message-square.svg

<svg xmlns="http://www.w3.org/2000/svg" width="24" height="24" viewBox="0 0 24 24" fill="none" stroke="currentColor" stroke-width="2" stroke-linecap="round" stroke-linejoin="round" >
  <path d="M18.28 9.76001V12.9C18.28 13.1 18.27 13.3 18.25 13.49C18.07 15.61 16.82 16.67 14.52 16.67H14.21C14.01 16.67 13.82 16.76 13.71 16.92L12.77 18.18C12.35 18.74 11.68 18.74 11.26 18.18L10.32 16.92C10.22 16.79 9.99001 16.67 9.82001 16.67H9.51001C7.00001 16.67 5.75 16.05 5.75 12.91V9.76999C5.75 7.46999 6.80999 6.22001 8.92999 6.04001C9.11999 6.02001 9.31999 6.01001 9.51999 6.01001H14.55C17.02 6.00001 18.28 7.26001 18.28 9.76001Z" stroke-miterlimit="10"/>
  <path d="M9 22H15C20 22 22 20 22 15V9C22 4 20 2 15 2H9C4 2 2 4 2 9V15C2 20 4 22 9 22Z"/>
  </svg>

<svg xmlns="http://www.w3.org/2000/svg" width="24" height="24" viewBox="0 0 24 24" fill="none" stroke="currentColor" stroke-width="2" stroke-linecap="round" stroke-linejoin="round">
  <path d="M15 22c5 0 7-2 7-7V9c0-5-2-7-7-7H9C4 2 2 4 2 9v6c0 5 2 7 7 7z" />
  <path d="M18.28 12.9a6 6 0 0 1-.03.59c-.18 2.12-1.43 3.18-3.73 3.18h-.31a.6.6 0 0 0-.5.25l-.94 1.26c-.42.56-1.09.56-1.51 0l-.94-1.26a.73.73 0 0 0-.5-.25h-.31c-2.51 0-3.76-.62-3.76-3.76V9.77c0-2.3 1.06-3.55 3.18-3.73a6 6 0 0 1 .59-.03h5.03c2.47-.01 3.73 1.25 3.73 3.75z" />
</svg>
